X: 1
T: Mr. Mc. Laines Scotch-measure
%R: reel
B: "A Collection of Original Scotch-Tunes", Henry Playford, 1700, ed. p.1 #1
F: http://imslp.org/wiki/A_Collection_of_Original_Scotch_Tunes_(Various)
Z: 2015 John Chambers <jc:trillian.mit.edu>
M: C|
L: 1/8
K: C
% - - - - - - - - - - - - - - - - - - - - - - - - - - - - -
ED |\
C3E DCDE | G2D2 D2ED | C3E DCDE | GEDC c3d |\
edce dcBd | cB AG D3E | CDEF GE cG | E2(DC) C2 |]
ed |\
c2gf efga | f2ed d2ed | c2gfefga | gfed c3d |\
edce dcBd | cBAG D3E | CDEF GE cG | E2(DC) C2 |]
% - - - - - - - - - - - - - - - - - - - - - - - - - - - - -

%%sep 1 1 500
%%sep 1 1 500

